src/assets/PROJECTS_ICON.svg

<svg width="301" height="152" viewBox="0 0 301 152" fill="none" xmlns="http://www.w3.org/2000/svg">
<path d="M190 43H301V152H190V43Z" fill="#6F5577"/>
<mask id="mask0_70_2232" style="mask-type:alpha" maskUnits="userSpaceOnUse" x="0" y="0" width="301" height="109">
<path d="M0 0H300.667V108.915H0V0Z" fill="#D3A7E0"/>
</mask>
<g mask="url(#mask0_70_2232)">
<path d="M0 0H300.667V108.915H0V0Z" fill="#D3A7E0"/>
<path d="M306.944 30.6803L295.368 19.1048L260.641 53.8315L295.368 88.5582L330.095 53.8315L306.944 30.6803ZM295.535 65.2402L283.959 53.6646L295.201 42.4228L306.777 53.9984L295.535 65.2402Z" fill="white"/>
<path d="M224.327 50.1254L233.458 40.3041C237.282 46.7472 242.107 49.1592 247.533 50.2141C252.654 51.2095 256.19 48.7521 256.921 45.2579C257.592 42.047 257.422 38.6727 251.159 36.6692C241.327 33.4804 232.542 27.9402 235.621 13.208C238.542 -0.768676 249.552 -5.11467 258.265 -3.42095C264.762 -2.15809 271.096 0.645479 275.785 6.37233L267.931 16.9332C263.715 11.9863 258.616 10.5038 255.788 9.95411C249.979 8.82497 248.026 12.0814 247.473 14.7257C246.605 18.8809 248.738 20.4747 257.172 23.8832C265.607 27.2916 272.283 33.4048 269.5 46.7204C266.639 60.4138 254.534 65.4314 244.139 63.4108C236.954 62.0143 229.76 59.1417 224.327 50.1254Z" fill="white"/>
<path d="M219.639 105.59L210.373 14.438L182.174 17.6067L179.493 0.107802L246.989 -7.56227L249.672 9.95797L225.715 12.7262L236.508 104.003L219.639 105.59Z" fill="white"/>
<path d="M173.834 65.5697L172.005 52.1175C170.4 40.3059 176.298 29.1135 191.34 27.519C202.31 26.3562 210.83 31.3608 214.837 39.756L203.284 45.3074C201.834 41.4671 198.098 38.7845 192.862 39.3395C186.463 40.0178 184.095 44.9283 184.731 49.6038L186.838 65.1066C187.507 70.0281 191.134 74.3864 197.533 73.7081C202.685 73.1619 205.691 69.8479 206.037 65.5677L218.795 68.875C217.184 78.1152 210.025 84.3658 199.221 85.5109C184.179 87.1054 175.606 78.6117 173.834 65.5697Z" fill="white"/>
<path d="M141.49 91.4969L134.4 25.4765L174.307 19.9421L175.713 33.0324L148.297 36.8345L149.733 50.2093L173.093 46.9696L174.448 59.5856L151.088 62.8253L152.575 76.6744L179.991 72.8723L181.397 85.9625L141.49 91.4969Z" fill="white"/>
<path d="M107.74 99.438L115.981 85.409C119.832 89.6477 123.458 91.1328 126.098 90.7381C129.491 90.2307 134.472 87.7121 133.266 77.3764L126.521 19.5959L140.849 17.4535L147.695 76.1056C150.268 98.1469 140.575 106.311 128.981 108.045C121.251 109.201 113.811 107.906 107.74 99.438Z" fill="white"/>
<path d="M76.7962 56.8069L78.7036 42.3301C80.3784 29.6188 90.5918 19.6735 108.561 22.2761C125.239 24.6918 134.326 36.353 132.511 50.1236L130.604 64.6004C128.673 79.2537 116.719 87.0577 100.338 84.6851C82.369 82.0825 75.1097 69.6065 76.7962 56.8069ZM114.89 63.3138L117.088 46.6302C117.797 41.2456 114.133 36.0371 106.787 34.973C99.1425 33.8658 94.9172 38.2915 94.2543 43.323L92.0561 60.0066C91.3583 65.303 94.2693 70.8522 101.914 71.9594C109.26 73.0235 114.122 69.1399 114.89 63.3138Z" fill="white"/>
<path d="M40.5604 100.985L35.6377 20.5891L65.2498 18.3582C76.9793 17.4746 87.4125 25.392 88.3603 40.8706C88.9474 50.4581 85.2263 59.0936 77.4049 63.8605L92.2856 97.0887L75.5566 98.349L63.0782 68.073L53.4639 68.7973L55.3665 99.87L40.5604 100.985ZM52.4878 52.8566L64.698 51.9368C70.082 51.5312 73.3522 48.1516 72.9844 42.145C72.6167 36.1383 69.1031 33.9661 64.1037 34.3427L51.4127 35.2988L52.4878 52.8566Z" fill="white"/>
<path d="M-8.97181 103.627L-15.3403 -0.380714L14.9461 -2.66234C30.4586 -3.83098 41.4817 8.24936 42.7444 28.8715C43.8974 47.7004 33.3422 62.3071 19.307 63.3644L4.95528 64.4456L7.27943 102.402L-8.97181 103.627ZM3.69256 43.8235L17.3056 42.7979C22.6875 42.3925 26.7213 37.2846 26.2547 29.6634C25.7423 21.295 21.8018 17.5385 15.3646 18.0234L2.17363 19.0171L3.69256 43.8235Z" fill="white"/>
</g>
</svg>

<svg width="301" height="152" fill="none" xmlns="http://www.w3.org/2000/svg"><path d="M190 43h111v109H190V43z" fill="#6F5577"/><mask id="a" style="mask-type:alpha" maskUnits="userSpaceOnUse" x="0" y="0" width="301" height="109"><path d="M0 0h300.667v108.915H0V0z" fill="#D3A7E0"/></mask><g mask="url(#a)"><path d="M0 0h300.667v108.915H0V0z" fill="#D3A7E0"/><path d="m306.944 30.68-11.576-11.575-34.727 34.726 34.727 34.727 34.727-34.727-23.151-23.15zm-11.409 34.56-11.576-11.575 11.242-11.242 11.576 11.575-11.242 11.242z" fill="#fff"/><path d="m224.327 50.125 9.131-9.82c3.824 6.442 8.649 8.854 14.075 9.91 5.121.994 8.657-1.463 9.388-4.957.671-3.211.501-6.585-5.762-8.589-9.832-3.189-18.617-8.729-15.538-23.461 2.921-13.977 13.931-18.323 22.644-16.629 6.497 1.263 12.831 4.066 17.52 9.793l-7.854 10.561c-4.216-4.947-9.315-6.43-12.143-6.979-5.809-1.129-7.762 2.127-8.315 4.772-.868 4.155 1.265 5.749 9.699 9.157 8.435 3.409 15.111 9.522 12.328 22.837-2.861 13.694-14.966 18.711-25.361 16.69-7.185-1.396-14.379-4.268-19.812-13.285z" fill="#fff"/><path d="m219.639 105.59-9.266-91.152-28.199 3.169-2.681-17.5 67.496-7.67 2.683 17.521-23.957 2.768 10.793 91.277-16.869 1.587z" fill="#fff"/><path d="m173.834 65.57-1.829-13.452c-1.605-11.812 4.293-23.005 19.335-24.599 10.97-1.163 19.49 3.842 23.497 12.237l-11.553 5.551c-1.45-3.84-5.186-6.523-10.422-5.968-6.399.679-8.767 5.59-8.131 10.265l2.107 15.503c.669 4.921 4.296 9.28 10.695 8.601 5.152-.546 8.158-3.86 8.504-8.14l12.758 3.307c-1.611 9.24-8.77 15.49-19.574 16.636-15.042 1.594-23.615-6.9-25.387-19.941z" fill="#fff"/><path d="m141.49 91.497-7.09-66.02 39.907-5.535 1.406 13.09-27.416 3.803 1.436 13.374 23.36-3.24 1.355 12.617-23.36 3.24 1.487 13.848 27.416-3.802 1.406 13.09-39.907 5.535z" fill="#fff"/><path d="m107.74 99.438 8.241-14.029c3.851 4.239 7.477 5.724 10.117 5.33 3.393-.508 8.374-3.027 7.168-13.363l-6.745-57.78 14.328-2.143 6.846 58.653c2.573 22.04-7.12 30.205-18.714 31.939-7.73 1.156-15.17-.139-21.241-8.607z" fill="#fff"/><path d="m76.796 56.807 1.908-14.477c1.674-12.711 11.888-22.656 29.857-20.054 16.678 2.416 25.765 14.077 23.95 27.848L130.604 64.6c-1.931 14.654-13.885 22.458-30.266 20.085-17.969-2.603-25.228-15.079-23.542-27.878zm38.094 6.507 2.198-16.684c.709-5.384-2.955-10.593-10.301-11.657-7.645-1.107-11.87 3.319-12.533 8.35l-2.198 16.684c-.698 5.296 2.213 10.845 9.858 11.952 7.346 1.064 12.208-2.82 12.976-8.645z" fill="#fff"/><path d="m40.56 100.985-4.922-80.396 29.612-2.23c11.73-.884 22.162 7.033 23.11 22.512.587 9.587-3.134 18.223-10.955 22.99l14.88 33.228-16.728 1.26-12.479-30.276-9.614.724 1.903 31.073-14.807 1.115zm11.928-48.128 12.21-.92c5.384-.406 8.654-3.785 8.286-9.792-.367-6.007-3.88-8.179-8.88-7.802l-12.691.956 1.075 17.558z" fill="#fff"/><path d="M-8.972 103.627-15.34-.381l30.286-2.281C30.46-3.831 41.482 8.249 42.744 28.872c1.153 18.828-9.402 33.435-23.437 34.492L4.955 64.446l2.324 37.956-16.25 1.225zM3.693 43.824l13.613-1.026c5.381-.406 9.415-5.513 8.949-13.135-.513-8.368-4.453-12.125-10.89-11.64l-13.191.994 1.519 24.807z" fill="#fff"/></g></svg>
